img/icons/phone.svg

<svg xmlns="http://www.w3.org/2000/svg" viewBox="0 0 595.3 841.9">
  <path d="M736 326.6l-4.8-3.6c-1.1-.8-2.5-.6-3.5.4l-1.4 1.9c-1.3-.6-2.7-1.7-4-3-1.3-1.3-2.3-2.6-3.1-4l1.9-1.4.1-.1c.6-.6.9-1.3.9-1.9 0-.5-.2-1-.5-1.5l-3.7-4.7c-.8-1-2.3-1.2-3.4-.4-.3.2-3.3 2.1-3.5 4.8-.2 1.9 1 7 7.2 13.2 4.1 4.1 9.9 6.6 13 6.6 3.5 0 5.3-2.9 5.3-3 .3-.4.4-.9.4-1.4.1-.7-.3-1.4-.9-1.9zm-.7 2.6s-1.4 2.3-4.1 2.3c-2.8 0-8.2-2.4-12-6.2-6-6-6.9-10.7-6.8-12 .2-2.1 2.8-3.7 2.8-3.7.2-.1.4-.2.6-.2.3 0 .6.1.8.3l3.7 4.7c.1.2.2.4.2.6 0 .2-.2.5-.4.8l-2 1.5-.1.1c-.4.4-.6.9-.4 1.5l.1.1c.8 1.5 1.9 3 3.4 4.5s3.1 2.6 4.6 3.3c.5.2 1.1.1 1.6-.3l1.5-2c.3-.4.9-.6 1.4-.2l4.8 3.6c.3.2.4.5.4.8.1.1 0 .3-.1.5z"/>
</svg>

<svg viewBox="710 307 27 26" version="1.1" xmlns="http://www.w3.org/2000/svg" xmlns:xlink="http://www.w3.org/1999/xlink">
  <path d="M736,326.6 L731.2,323 C730.1,322.2 728.7,322.4 727.7,323.4 L726.3,325.3 C725,324.7 723.6,323.6 722.3,322.3 C721,321 720,319.7 719.2,318.3 L721.1,316.9 L721.2,316.8 C721.8,316.2 722.1,315.5 722.1,314.9 C722.1,314.4 721.9,313.9 721.6,313.4 L717.9,308.7 C717.1,307.7 715.6,307.5 714.5,308.3 C714.2,308.5 711.2,310.4 711,313.1 C710.8,315 712,320.1 718.2,326.3 C722.3,330.4 728.1,332.9 731.2,332.9 C734.7,332.9 736.5,330 736.5,329.9 C736.8,329.5 736.9,329 736.9,328.5 C737,327.8 736.6,327.1 736,326.6 L736,326.6 Z M735.3,329.2 C735.3,329.2 733.9,331.5 731.2,331.5 C728.4,331.5 723,329.1 719.2,325.3 C713.2,319.3 712.3,314.6 712.4,313.3 C712.6,311.2 715.2,309.6 715.2,309.6 C715.4,309.5 715.6,309.4 715.8,309.4 C716.1,309.4 716.4,309.5 716.6,309.7 L720.3,314.4 C720.4,314.6 720.5,314.8 720.5,315 C720.5,315.2 720.3,315.5 720.1,315.8 L718.1,317.3 L718,317.4 C717.6,317.8 717.4,318.3 717.6,318.9 L717.7,319 C718.5,320.5 719.6,322 721.1,323.5 C722.6,325 724.2,326.1 725.7,326.8 C726.2,327 726.8,326.9 727.3,326.5 L728.8,324.5 C729.1,324.1 729.7,323.9 730.2,324.3 L735,327.9 C735.3,328.1 735.4,328.4 735.4,328.7 C735.5,328.8 735.4,329 735.3,329.2 L735.3,329.2 Z" id="Shape" stroke="none" fill="#000000" fill-rule="evenodd"></path>
</svg>
